X:5139
T:Pit Hame Da Borrowed Claes
O:england
M:4/4
L:1/8
Q:1/4=220
C:Trad Shetland
R:reel
B:Fiddler's Fake Book
K:G
"G"D G2 A BABd|"G"edBd "D"gdBA|"G"DGBG (3cBA Bd|"G"edgB "D"BAAB|
"G"D G2 A BABd|"G"edBd "D"gdBA|"G"D G2 A BABd|"G"edgB "D"A2 AB||
"G"dBgd ed B2|"G"dBgB "D"BAAB|"G"dBgd ed B2|"G"gfgB "D"BAAB|
"G"dBgd ed B2|"G"dBgB "D"BA A2|"G"dBgB defg|"G"afge "D"BA A2||


